X:136891
T:136891
M:4/4
K:Cmin
EGCGEGCG|CGEGAAGF|EGCGEGCG|CB,DEFFGF|EGCGEGCG|CGEGAAGF|EFGABcBA|FB,DFAAGF:|EEGEBEGE|EEGBceBG|EEGEBEGE|FDB,DFAGF|EEGEBEGE|EEGBcccd|efedcBGB|(3cdeBGFECD:|

